!! 00000] TT[00
!!!OTL: Yueya wugeng
!!!ARE: Asia, China,Liaoning
!! Ethnic Group: Han
!! Zhongguo Minge Jing Xuan, 79
!!!SCT: C1165
!!!YEM: Copyright 1995, estate of Helmut Schaffrath.
**kern
*ICvox
*Ivox
*M2/4
*k[f#]
*G:
{4b
8dd
16ee
16dd
=1
8b
4b
16dd
16b
=2
8.a
16b
8dd
8ee
=3
16b
16dd
16b
16a
8g
8e
=4
8b
4a
8g
=5
4.a
8r}
=6
{4b
8dd
16ee
16dd
=7
8b
4b
16dd
16b
=8
8.a
16b
8dd
8ee
=9
16b
16dd
16b
16a
8g
8e
=10
8b
4a
8g
=11
8a
8d
4e}
=12
{8.b
16dd
8b
8a
=13
8b
4g
8a
=14
2g}
=15
{8b
8e
8b
16b
16dd
=16
8a
8g
4e}
=17
{8b
8e
8b
16b
16dd
=18
8a
16a
16g
4e}
=19
{8g
4g
16e
16g
=20
8a
4a
8b
=21
8dd
4dd
8ee
=22
16b
16dd
16b
16a
8g
8e}
=23
{8.b
16dd
8f#
8e
=24
4d
16B
16d
8e
=25
2d}
==
!!!AGN: Xiaodiao
!! 
!!!ONB: ESAC (Essen Associative Code) Database: CHINA_027
!!!AMT: simple duple
!!!AIN: vox
!!!EED: Helmut Schaffrath
!!!EEV: 1.0
*-
